packages/gamut-icons/src/trash.svg

<?xml version="1.0" encoding="utf-8"?>
<!-- Generated by IcoMoon.io -->
<!DOCTYPE svg PUBLIC "-//W3C//DTD SVG 1.1//EN" "http://www.w3.org/Graphics/SVG/1.1/DTD/svg11.dtd">
<svg version="1.1" xmlns="http://www.w3.org/2000/svg" xmlns:xlink="http://www.w3.org/1999/xlink" width="32" height="32" viewBox="0 0 32 32">
<path fill="#444" d="M24 12v18h-16v-18h16zM26 10h-20v20c0 1.2 0.8 2 2 2h16c1.2 0 2-0.8 2-2v-20z"></path>
<path fill="#444" d="M4.2 6h24v2h-24v-2z"></path>
<path fill="#444" d="M6.2 4h20v2h-20v-2z"></path>
<path fill="#444" d="M14.2 2h4v2h-4v-2z"></path>
<path fill="#444" d="M10 14h2v14h-2v-14z"></path>
<path fill="#444" d="M15 14h2v14h-2v-14z"></path>
<path fill="#444" d="M20 14h2v14h-2v-14z"></path>
</svg>

<svg xmlns="http://www.w3.org/2000/svg" viewBox="0 0 32 32">
    <path fill="#444" d="M24 12v18H8V12h16zm2-2H6v20c0 1.2.8 2 2 2h16c1.2 0 2-.8 2-2V10zM4.2 6h24v2h-24V6zm2-2h20v2h-20V4zm8-2h4v2h-4V2z"/>
    <path fill="#444" d="M10 14h2v14h-2V14zm5 0h2v14h-2V14zm5 0h2v14h-2V14z"/>
</svg>
